X:1
T:Title
%%score { ( 1 3 ) | ( 2 4 ) }
L:1/8
Q:1/4=100
M:4/4
K:G
V:1 treble nm="Grand Piano"
V:3 treble 
V:2 bass 
V:4 bass 
V:1
 [G,B,D]2 [DB]2 [CA]2 [B,G]2 | F3 G B2 A2 | D2 c2 B2 A2 | G3 A B4 | D2 [DBd]2 [DAc]2 [DGB]2 | %5
w: C.~C.~Case * * *|||||
 [EAc]3 [EBd] [Ece]2 [EAc]2 | [DGB]2 [Gd]2 [Ec]2 B2 |[M:7/8] B3 A [B,G]3 |[M:1/4] D>G | %9
w: ||||
[M:4/4] B6 z2 | A6 z2 | [Ac]2 [ce]2 [Bd]2 [_B^c]2 | [Bd]4 B2 D>G | B6 z2 | A6 z2 | %15
w: ||||||
 [Ec]2 [Ge]2 [Gd]2 [DF]>[CDF] |[M:3/4] G6 |[M:1/4] z A | %18
w: |||
[M:4/4] [GB][Bd][_B^c][=Bd] [=ce][Bd][Fc][CA] | G8 |] %20
w: ||
V:2
 G,,2 G,,2 [G,,G,]2 [G,,G,]2 | [D,A,]3 [D,G,B,] [D,G,D]2 [D,F,C]2 | %2
 [D,F,C]2 [D,F,E]2 [D,F,D]2 [D,F,C]2 | [G,B,]3 [G,C] [G,D]4 | [G,B,]2 G,2 G,2 G,2 | %5
 C,3 B,, A,,2 C,2 | D,2 [B,,G,]2 [C,G,]2 [D,G,D]2 |[M:7/8] [D,F,D]3 [D,F,C] [G,,G,]3 |[M:1/4] z2 | %9
[M:4/4] z2 [G,,G,]>[G,,G,] [G,,G,]2 z2 | z2 [D,A,]>[D,A,] [D,A,]2 [D,D]>[D,D] | %11
 [D,D]2 [D,D]2 [D,D]2 [D,D]2 | z4[K:treble] G2 z2 | z2[K:bass] [G,,G,]>[G,,G,] [G,,G,]2 z2 | %14
 z2 [D,A,]>[D,A,] [D,A,]2 [D,A,]>[B,,G,] | [A,,A,]2 [C,A,]2 [D,B,]2 D,>D, |[M:3/4] z2 C>C B,2 | %17
[M:1/4] z2 |[M:4/4] [G,,G,]2 [G,,G,]2 [C,,C,]2 [D,,D,]2 | z CB,A, G,4 |] %20
V:3
 x8 | x8 | x8 | x8 | x8 | x8 | x8 |[M:7/8] x7 |[M:1/4] x2 |[M:4/4] z2 D>D D2 d>c | %10
 z2 F>F F2 [FA]>[GB] | x8 | D6 z2 | z2 D>D D2 d>c | z2 F>F F2 [FA]>[GB] | x8 | %16
[M:3/4] [B,D]2 E>E D2 |[M:1/4] G2 |[M:4/4] x8 | B,EDC B,4 |] %20
V:4
 x8 | x8 | x8 | x8 | x8 | x8 | x8 |[M:7/8] x7 |[M:1/4] x2 |[M:4/4] x8 | x8 | x8 | %12
 G,6[K:treble] z2 | x2[K:bass] x6 | x8 | x8 |[M:3/4] G,,6 |[M:1/4] x2 |[M:4/4] x8 | [G,,,G,,]8 |] %20

